X: 34695
T: Road To Errogie, The
R: reel
M: 4/4
K: Gmajor
DGG2 AGAB|dGG2 ABdB|e3g dBG2|A3B AGDE|
DGG2 AGAB|dGG2 ABdB|e3g dBG2|AGED G2 BG:|
dgg2 g2ag|ab2a g2 gd|e2dg2de2-|edgd edBd|
dgg2 g2ag|ab2a g2 gd|e3g dB G2|AGED G4|
dgg2 g2ag|ab2a g2 gd|e2dg2de2-|edgd edBd|
DGG2 AGAB|dGG2 ABdB|e3g dBG2|AGED G2 BG||

